X: 660
P: Longways for as many as will
M: 6/4
L: 1/8
K: Dm
(dA3)d2 (^dA3)f2 | (ge3)f2 (e^c3)e2 |\
(d=B3)d2 (^cA3)f2 | e6- e4 :|
e/f/g |\
a6 g6 | f3gf2 (e^c3)e2 |\
(d=B3)d2 ^c4d2 | e2^c3=B A3e fg |\
(ae3)f2 e4d2 | d6- d4 :|

